X:1
T:Mui\~neira De Chantada
R:muineira
H:Original key Cm
D:Milladoiro
O:Galicia
Z:id:hn-muineira-1
M:6/8
L:1/8
K:Dm
D2A | D3 EFG | A3- A2A | AGA B2A | A3 E3 |
E3 FGA | B3- BAG | ABA GFE | F2E D2A |
D3 EFG | A3- A2A | AGA d2c | c3 B3 |
Bcd E2d | d3 A3 | ABA GFE | D3 :|
K:D
|: d2c | A2B c2A | B3 A2G | E2F G2A | F2D d2c |
A2B c2A | B3 A2G | E2F G2A | D3 :|
|: zdA | c2B BGE | B2A AFD | A2G GEC | B2A AdA |
c2B BGE | B2A AFD | A2G GEF | D3 :|

